X:1
T:Praise the Rock of Our Salvation
T:Hubert Platt Main
T:Praise the Rock of Our Salvation
T:Public Domain
T:Public Domain
T:Public Domain
C:Hubert Platt Main
Z:Public Domain
%%score ( 1 2 ) ( 3 4 )
L:1/8
M:9/8
K:Ab
V:1 treble 
V:2 treble 
V:3 bass 
V:4 bass 
V:1
 ([CA][DB])[Ec] | [Fd]3- [Fd]2 [Ec] ([DB][Ec])[Fd] | [Ec]3 [CA]3 (CD)[EA] | %3
w: 1.~Praise * the|Rock * of our * sal-|va- tion! Praise * the|
w: 2.~Praise * the|Rock * of our * sal-|va- tion! Praise * the|
w: 3.~Praise * the|Rock * of our * sal-|va- tion! Je- * sus’|
w: 4.~Praise * the|Rock * of our * sal-|va- tion! Catch * from|
 ([FA]3- [FA][=EG])[FA] (BA)[DF] | [CE]3- [CE]3 [Ec]2 [Ec] | [Ge]3- [Ge]2 [GB] ([GB]A)[GB] | %6
w: y * * God a- * bove!|be- * fore His|sac- * red pre- * sence|
w: ther’s * * bound- less * love!|the * Lamb, our|ex- * pi- a- * tion!|
w: a- * * vails for * sin;|sus, * at the|door * of mer- * cy,|
w: der * * ra- diant * clime|by * ev- er-|last- * ing ag- * es,|
 [Ac]3 [Ac]3 [Ae]2 [Ae] | [Ge]3- [Ge]2 [Ge] (=dc)[Ad] | [Ge]3- [Ge]3 ||"^Refrain" (ed)[Ec] | %10
w: a grate- ful song|of * love. * * *|||
w: the Spir- it from|a- * bove! Hal- * le-|jah! *|Hal- * le-|
w: to let the wand-|r’er * in. * * *|||
w: choed back in tones|sub- * lime. * * *|||
 [Ed]3 [Ed]3 (dc)[EB] | [Ec]3 [Ec]3 (CE)[EB] | [Ec]3 [Ec]3 (cB)[_DA] | [DB]3- [DB]3 [DE]2 [DE] | %14
w: ||||
w: jah! He is * God,|He a- lone. * Wake|song of a- * do-|tion— * Come with|
w: ||||
w: ||||
 [CA]3- [CA]2 [CA] [Ec]2 [_Ge] | [_Ge]3 [Fd]3 [CA]2 [=DB] | [Ec]3- [Ec]2 [Ac] (BA)[EG] | [EA]6 |] %18
w: ||||
w: joy * be- fore His|throne! * * *|||
w: ||||
w: ||||
V:2
 x3 | x9 | x6 A2 x | x6 F2 x | x9 | x7 A x | x9 | x6 A2 x | x6 || E2 x | x6 E2 x | x6 A2 x | %12
w: ||might-|Come||With|||||||
w: ||Fa-|Praise||Praise||lu-||lu-|and|the|
w: ||blood|Je-||Waits|||||||
w: ||yon-|Strains||E-|||||||
 x6 =D2 x | x9 | x9 | x9 | x6 E2 x | x6 |] %18
w: ||||||
w: ra-||||||
w: ||||||
w: ||||||
V:3
 A,2 A, | A,3- A,2 A, [E,G,]2 [E,G,] | A,3 [A,,A,]3 (A,,B,,)[C,A,] | %3
 [D,A,]3- [D,A,]2 [D,A,] [D,A,]2 [D,A,] | [A,,A,]3- [A,,A,]3 A,2 A, | %5
 [E,B,]3- [E,B,]2 [E,D] (DC)[E,E] | [A,E]3 [A,E]3 [A,C]2 [A,C] | %7
 [E,B,]3- [E,B,]2 [E,B,] [B,,B,]2 [B,,B,] | [E,B,]3- [E,B,]3 || (CB,)A, | %10
 [E,B,]3 [E,B,]3 (B,A,)[E,G,] | A,3 A,3 (A,,C,)[E,G,] | A,3 A,3 [F,B,]2 [F,B,] | %13
 [E,G,]3- [E,G,]3 [E,G,]2 [E,G,] | [A,,A,]3- [A,,A,]2 [A,,A,] [A,,A,]2 [A,,A,] | %15
 [C,A,]3 [D,A,]3 [F,A,]2 [F,A,] | [E,A,]3- [E,A,]2 [E,E] (DC)[E,B,] | [A,,C]6 |] %18
V:4
 A,2 A, | A,3- A,2 A, x3 | A,3 A,2 x4 | x9 | x6 A,2 A, | x6 E,2 x | x9 | x9 | x6 || A,2 A, | %10
 x6 E,2 x | A,3 A,3 A,2 x | A,3 A,3 x3 | x9 | x9 | x9 | x6 E,2 x | x6 |] %18

